X:1
T: Lord Alexander Gordon's Strathspey
T: 1st version
C:William Marshall
R:Strathspey
Q: 128
K:A
M:4/4
L:1/16
|:c2|A,3A A2cd e3A c4|e3e fedc dB3 B3c|A,3A A2cd e3A c4|((3f2g2a2) ((3e2f2d2) cA3 A2c2|
A,3A A2cd e3A c4|e3e fedc dB3 B3c|A,3A A2cd e3A c4|((3f2g2a2) ((3e2f2d2) cA3 A2E2|
CE3 E2FG A3E A4|FB3 B3c d3c B3A|((3c2d2e2) ((3f2g2a2) f3e d3c|((3B2c2d2) ((3e2f2d2) cA3 A2E2|
CE3 E2FG A3E A4|FB3 B3c d3c B3A|((3c2d2e2) ((3f2g2a2) f3e d3c|((3B2c2d2) ((3e2f2d2) cA3 A2:|
